X:12021
T:London Hornpipe
R:Hornpipe
C:Trad.
O:England
Z:Paul Hardy's Session Tunebook 2015 (see www.paulhardy.net). Creative Commons cc by-nc-sa licenced.
M:4/4
L:1/8
Q:1/4=120
K:G
|Bc|"G"dcBA G2 Bd|"Em"g2 eg "Bm"f2 dB|"Am"c2 ac "G"B2 gB|"Am"cBAG "D"GFED|
"C"EDEF "D"GFGA|"G"BABc "Bm"d2g2|"G"dBGB "D7"cAGF|"G"G2 G2 G2:|
|:d2|"G"g2 bg "D"f2 af|"Em"g2eg "Bm"f2 d2|"Am"c2 ac "G"B2 gB|"Am"cBAG "D"FFED|
"C"EDEF "D"GFGA|"G"BABc "Bm"d2 g2|"G"dBGB "D7"cAGF|"G"G2 G2 G2:|

